dist/img/52.svg

<svg version="1.1" xmlns="http://www.w3.org/2000/svg" xmlns:xlink="http://www.w3.org/1999/xlink" x="0px" y="0px" width="512px" height="512px"><path d="M107.6389923,340.6451416C71.5506592,476.7282104,143.4621124,535.15625,256.3231201,427.5663757c106.7727356,104.5197449,186.4371338,58.1507568,148.6841736-85.4172058c157.2375183-44.7936707,127.2928162-139.5636444,0-170.7953491C443.0931702,19.29146,355.7007751-14.6667271,255.8152618,84.4325943c-98.869751-99.0993195-187.2609253-67.1386719-148.1762695,85.4172134C-29.8245163,209.0578003-41.8097572,295.9508057,107.6389923,340.6451416z M284.4308777,359.7483215c-9.0437012,12.0517578-18.5952759,23.1073608-28.1273193,33.6550903c-9.55159-10.54776-19.0836182-21.6033325-28.1273193-33.6550903C248.0769043,360.3559265,266.9905701,360.4416809,284.4308777,359.7483215z M180.9653168,332.617157c-15.567688-2.0118713-30.1392059-4.5316467-44.2028656-7.5396729c4.5316315-13.5558167,9.55159-27.6389771,15.567688-41.7026672C160.4491119,299.6058655,170.0413208,316.026062,180.9653168,332.617157z M136.7429047,186.9117737c14.0636749-3.0080719,28.6351776-5.5180511,44.2028656-7.5299225c-10.7397919,16.6552734-20.3069611,33.2335968-28.6351776,49.7306671C145.7866211,214.5410004,140.7471466,200.4871216,136.7429047,186.9117737z M302.04953,175.8854675c17.3058777,25.7154541,32.6083679,52.3876953,46.2147827,79.8698883c-12.5565186,25.8251495-28.1215515,52.4933624-46.2147217,79.8698883c-31.0629883,1.6671143-61.5702209,1.7332458-91.4528656,0c-17.5552979-25.7342529-33.0427551-52.3233948-46.2147827-79.8699036c12.6835327-26.305481,28.263855-52.9492645,46.2147217-79.869873C239.7493286,173.9498291,270.2335815,173.9498291,302.04953,175.8854675z M360.8238831,228.6371918c-9.0575562-17.4945221-18.5491638-34.184967-28.6351624-49.7436829c15.5677185,2.0118561,30.1391907,4.5316162,44.2028809,7.5396729C371.8794861,200.4968414,366.8400269,214.5539856,360.8238831,228.6371918z M360.8238831,282.8994751c6.035675,14.0636597,11.055603,28.1143188,15.5677185,41.6896362c-14.0636597,3.0080566-28.6351624,5.5278015-44.2028809,7.5397034C342.566925,315.8956604,352.222168,299.5092773,360.8238831,282.8994751z M272.3986511,410.4946594c14.5715332-15.5677185,28.6351624-33.1667786,42.6988525-52.7582703c23.6152344-2.0118713,46.2147522-5.5278015,67.3298035-10.54776C412.4642029,474.7306519,357.8647766,493.7073059,272.3986511,410.4946594z M398.5223083,319.0613403c-6.5239868-20.6071777-14.5715027-41.7026672-24.6113892-63.3059998c10.0398865-21.6033478,18.5855103-42.6988373,24.6016235-63.306015c56.2742004,16.0755463,90.6610413,40.6991119,89.9195251,63.3059998C487.3337708,289.2405396,432.4393616,308.8726807,398.5223083,319.0613403z M382.9155579,164.3220062c-21.0954895-4.5316467-43.7145081-8.0475464-67.3297729-10.54776c-13.5558167-19.5914612-28.1273499-37.1710281-42.6988525-52.7582626C353.3378601,23.2555561,414.7946777,29.6120834,382.9155579,164.3220062z M284.4504089,151.7623749c-17.8624268-0.7757111-36.7118835-0.6903381-56.2546692,0c9.0437164-12.0517578,18.5952759-23.1073761,28.1273193-33.6551132C265.8746338,128.6549988,275.4066772,140.2184601,284.4504089,151.7623749z M240.2279968,101.0160065c-14.5715179,15.567688-28.6351624,33.1472778-42.698822,52.7582703c-23.6152191,2.0118713-46.2147675,5.5278015-67.3297729,10.5477448C101.2640686,44.5104065,149.4547272,13.0491457,240.2279968,101.0160065z M114.1336136,319.071106c-56.2741737-16.075531-89.4249878-40.7021179-89.9195251-63.3157806c-0.5520229-25.2420807,39.6696625-49.0434418,89.9097595-63.2864838c6.5239639,20.6071777,14.5715103,41.7026672,24.611412,63.306015C128.6953583,277.3782043,120.1497498,298.9718018,114.1336136,319.071106z M130.2189331,347.1886292c21.0954742,4.5316467,43.7145386,8.0475464,67.3297729,10.54776c13.5558167,19.5914917,28.1273499,37.171051,42.6988678,52.7582703C151.4522705,494.3731384,100.5149918,472.7331238,130.2189331,347.1886292z M232.9091797,296.1897278c-31.0780029-17.9168091-31.0780182-62.9520569-0.0000153-80.868866s70.1364594,4.6007996,70.1364594,40.434433S263.9871826,314.1065369,232.9091797,296.1897278z"/></svg>

<svg xmlns="http://www.w3.org/2000/svg" width="512" height="512"><path d="M107.639 340.645c-36.088 136.083 35.823 194.511 148.684 86.921 106.773 104.52 186.437 58.151 148.684-85.417 157.238-44.794 127.293-139.563 0-170.795 38.086-152.063-49.306-186.02-149.192-86.921-98.87-99.1-187.26-67.14-148.176 85.417-137.464 39.208-149.449 126.1 0 170.795zm176.792 19.103c-9.044 12.052-18.595 23.108-28.127 33.655-9.552-10.547-19.084-21.603-28.128-33.655 19.9.608 38.815.694 56.255 0zm-103.466-27.13c-15.567-2.013-30.139-4.532-44.203-7.54 4.532-13.556 9.552-27.64 15.568-41.703 8.12 16.23 17.711 32.651 28.635 49.242zm-44.222-145.706c14.064-3.008 28.635-5.518 44.203-7.53-10.74 16.655-20.307 33.233-28.635 49.73-6.524-14.571-11.564-28.625-15.568-42.2zm165.307-11.027c17.305 25.716 32.608 52.388 46.214 79.87-12.556 25.826-28.121 52.494-46.214 79.87-31.063 1.667-61.57 1.733-91.453 0-17.556-25.734-33.043-52.323-46.215-79.87 12.683-26.305 28.264-52.949 46.215-79.87 29.152-1.935 59.637-1.935 91.453 0zm58.774 52.752c-9.058-17.494-18.55-34.185-28.635-49.743 15.567 2.011 30.139 4.531 44.203 7.54-4.513 14.063-9.552 28.12-15.568 42.203zm0 54.262c6.036 14.064 11.055 28.115 15.568 41.69-14.064 3.008-28.636 5.528-44.203 7.54 10.378-16.233 20.033-32.62 28.635-49.23zm-88.425 127.596c14.571-15.568 28.635-33.167 42.699-52.759 23.615-2.011 46.214-5.527 67.33-10.547 30.036 127.542-24.563 146.518-110.03 63.306zm126.123-91.434a527.596 527.596 0 0 0-24.611-63.306c10.04-21.603 18.585-42.698 24.602-63.306 56.274 16.076 90.66 40.7 89.92 63.306-1.1 33.486-55.994 53.118-89.91 63.306zm-15.606-154.739c-21.096-4.532-43.715-8.048-67.33-10.548-13.556-19.591-28.128-37.17-42.7-52.758 80.452-77.76 141.909-71.404 110.03 63.306zm-98.466-12.56c-17.862-.775-36.711-.69-56.254 0 9.043-12.051 18.595-23.107 28.127-33.655 9.552 10.548 19.084 22.111 28.127 33.655zm-44.222-50.746c-14.572 15.568-28.635 33.147-42.699 52.758-23.615 2.012-46.215 5.528-67.33 10.548-28.935-119.812 19.256-151.273 110.029-63.306zM114.134 319.071c-56.275-16.075-89.425-40.702-89.92-63.316-.552-25.242 39.67-49.043 89.91-63.286a527.591 527.591 0 0 0 24.611 63.306c-10.04 21.603-18.585 43.197-24.601 63.296zm16.085 28.118c21.095 4.531 43.714 8.047 67.33 10.547 13.556 19.592 28.127 37.171 42.699 52.759-88.796 83.878-139.733 62.238-110.03-63.306zm102.69-51c-31.078-17.916-31.078-62.951 0-80.868s70.137 4.6 70.137 40.434-39.059 58.352-70.137 40.435z"/></svg>
